X:1
T: First Night in Leadville
C:
R:Reel
Q: 232
K:E
M:4/4
L:1/8
|:E2|E2 GB e2 fe|de fg a2 ga|bg af ge fd|Ba gf ec BG|
E2 GB e2 fe|de fg a2 ga|bg af ge fd|Ba gf e2:|
|:fB ((3BAB) gB ((3BAB)|aB gB fB ((3BAB)|ef ga ba gf|Ba gf ec BG|
E2 GB e2 fe|de fg a2 ga|bg af ge fd|Ba gf e2:|
